Educa/src/img/icons/dart.svg

<svg width="30" height="30" viewBox="0 0 30 30" fill="none" xmlns="http://www.w3.org/2000/svg">
<g clip-path="url(#clip0_103_315)">
<path d="M29.9988 16.8395C29.9988 9.58169 24.0958 3.77552 16.838 3.77552C14.5155 3.77552 12.3866 4.35616 10.4512 5.42065L5.32238 0.2918C5.03206 0.098273 4.74174 0.0014801 4.45142 0.0014801C4.06436 0.098273 3.87078 0.2918 3.67725 0.58212L2.90308 2.90456L0.677433 3.67873C0.29032 3.87226 0.0967929 4.06579 0 4.4529C0 4.74322 0.0967929 5.03354 0.29032 5.32386L5.41911 10.4527C4.35468 12.388 3.77404 14.6138 3.77404 16.9363C3.77404 24.194 9.67701 30.0002 16.9348 30.0002C24.1925 30.0002 30.0956 24.0972 29.9988 16.8395ZM5.03206 2.71104L9.28995 6.96893L8.99963 7.6463L4.74174 3.38835L5.03206 2.71104ZM2.70956 5.03348L3.38699 4.74322L7.64488 9.00111L6.96745 9.29137L2.70956 5.03348ZM16.9348 28.0648C10.7416 28.0648 5.70949 23.0327 5.70949 16.9362C5.70949 14.904 6.1934 12.9686 7.25783 11.3235L9.19322 10.5493L16.1607 17.5168C16.3542 17.7104 16.6445 17.8071 16.8381 17.8071C17.0316 17.8071 17.3219 17.7103 17.5155 17.5168C17.9026 17.1298 17.9026 16.5491 17.5155 16.162L10.548 9.19458L11.3222 7.25919C12.9673 6.2915 14.9026 5.71086 16.9349 5.71086C23.1282 5.71086 28.1602 10.7429 28.1602 16.8395C28.0634 23.0327 23.0313 28.0648 16.9348 28.0648Z" fill="white"/>
<path d="M22.8378 10.8389C21.2895 9.29061 19.1606 8.41965 16.8381 8.41965C15.7736 8.41965 14.6123 8.61317 13.6446 9.09702C13.1608 9.29055 12.8705 9.87119 13.1608 10.355C13.3543 10.8389 13.935 11.1292 14.4188 10.8389C15.193 10.5486 16.0639 10.355 16.8381 10.355C18.58 10.355 20.2251 11.0324 21.4831 12.2904C22.7411 13.5484 23.4184 15.1935 23.4184 16.9354C23.4184 20.5159 20.5154 23.419 16.9348 23.419C15.193 23.419 13.5479 22.7415 12.3867 21.4836C11.1287 20.2256 10.4513 18.5805 10.4513 16.8386C10.4513 15.9677 10.6448 15.1935 10.9351 14.4193C11.1287 13.9355 10.9351 13.3549 10.3545 13.1613C9.87066 12.9678 9.29002 13.1613 9.09649 13.742C8.70944 14.7097 8.51585 15.7741 8.51585 16.8386C8.51585 19.0643 9.38676 21.1933 11.0319 22.8384C12.5802 24.3867 14.7091 25.2577 17.0316 25.2577C21.6766 25.2577 25.4507 21.4837 25.4507 16.8386C25.257 14.613 24.3861 12.484 22.8378 10.8389Z" fill="white"/>
<path d="M18.096 13.2581C17.6122 13.0646 17.0315 13.3549 16.838 13.8387C16.6445 14.3226 16.9348 14.9032 17.4186 15.0967C18.1928 15.387 18.6767 16.0644 18.6767 16.8386C18.6767 17.8063 17.9025 18.6772 16.8381 18.6772C16.0639 18.6772 15.3865 18.1933 15.0962 17.4192C14.9027 16.9353 14.4188 16.645 13.8382 16.8385C13.3543 17.0321 13.064 17.516 13.2575 18.0965C13.8382 19.6449 15.2897 20.6126 16.838 20.6126C18.8702 20.6126 20.612 18.9675 20.612 16.8387C20.612 15.1935 19.5476 13.8387 18.096 13.2581Z" fill="white"/>
</g>
<defs>
<clipPath id="clip0_103_315">
<rect width="30" height="30" fill="white"/>
</clipPath>
</defs>
</svg>

<svg xmlns="http://www.w3.org/2000/svg" width="30" height="30" fill="none" xmlns:v="https://vecta.io/nano"><g clip-path="url(#A)" fill="#fff"><path d="M29.999 16.84c0-7.258-5.903-13.064-13.161-13.064a13.07 13.07 0 0 0-6.387 1.645L5.322.292c-.29-.194-.581-.29-.871-.29-.387.097-.581.29-.774.581l-.774 2.322-2.226.774c-.387.194-.581.387-.677.774 0 .29.097.581.29.871l5.129 5.129c-1.064 1.935-1.645 4.161-1.645 6.484C3.774 24.194 9.677 30 16.935 30s13.161-5.903 13.064-13.161zM5.032 2.711L9.29 6.969 9 7.646 4.742 3.388l.29-.677zM2.71 5.033l.677-.29 4.258 4.258-.677.29L2.71 5.033zm14.225 23.031c-6.193 0-11.225-5.032-11.225-11.129 0-2.032.484-3.968 1.548-5.613l1.935-.774 6.967 6.967c.194.194.484.29.677.29s.484-.097.677-.29c.387-.387.387-.968 0-1.355l-6.967-6.967.774-1.935c1.645-.968 3.58-1.548 5.613-1.548 6.193 0 11.225 5.032 11.225 11.129-.097 6.193-5.129 11.225-11.225 11.225zm5.903-17.225c-1.548-1.548-3.677-2.419-6-2.419-1.065 0-2.226.194-3.193.677-.484.194-.774.774-.484 1.258.194.484.774.774 1.258.484.774-.29 1.645-.484 2.419-.484 1.742 0 3.387.677 4.645 1.935s1.935 2.903 1.935 4.645c0 3.58-2.903 6.484-6.484 6.484-1.742 0-3.387-.678-4.548-1.935-1.258-1.258-1.935-2.903-1.935-4.645 0-.871.194-1.645.484-2.419.194-.484 0-1.064-.581-1.258-.484-.194-1.064 0-1.258.581-.387.968-.581 2.032-.581 3.097 0 2.226.871 4.355 2.516 6 1.548 1.548 3.677 2.419 6 2.419a8.43 8.43 0 0 0 8.419-8.419c-.194-2.226-1.065-4.355-2.613-6zm-4.742 2.419c-.484-.194-1.064.097-1.258.581s.097 1.065.581 1.258c.774.29 1.258.968 1.258 1.742 0 .968-.774 1.839-1.839 1.839-.774 0-1.452-.484-1.742-1.258-.194-.484-.677-.774-1.258-.581-.484.194-.774.677-.581 1.258.581 1.548 2.032 2.516 3.581 2.516a3.78 3.78 0 0 0 3.774-3.774c0-1.645-1.064-3-2.516-3.581z"/></g><defs><clipPath id="A"><path fill="#fff" d="M0 0h30v30H0z"/></clipPath></defs></svg>
